assets/images/search/item-3.svg

<svg width="76" height="76" viewBox="0 0 76 76" fill="none" xmlns="http://www.w3.org/2000/svg">
<g clip-path="url(#clip0)">
<path d="M69.6 75.86H6.26C2.8 75.86 0 73.06 0 69.6V6.26C0 2.8 2.8 0 6.26 0H69.6C73.06 0 75.86 2.8 75.86 6.26V69.6C75.86 73.06 73.06 75.86 69.6 75.86Z" fill="#0019A5"/>
<path d="M7.90055 11.99C10.1594 11.99 11.9905 10.1588 11.9905 7.9C11.9905 5.64115 10.1594 3.81 7.90055 3.81C5.6417 3.81 3.81055 5.64115 3.81055 7.9C3.81055 10.1588 5.6417 11.99 7.90055 11.99Z" stroke="white" stroke-miterlimit="10" stroke-linecap="round" stroke-linejoin="round"/>
<path d="M7.90055 72.05C10.1594 72.05 11.9905 70.2188 11.9905 67.96C11.9905 65.7012 10.1594 63.87 7.90055 63.87C5.6417 63.87 3.81055 65.7012 3.81055 67.96C3.81055 70.2188 5.6417 72.05 7.90055 72.05Z" stroke="white" stroke-miterlimit="10" stroke-linecap="round" stroke-linejoin="round"/>
<path d="M67.9591 72.05C70.218 72.05 72.0491 70.2188 72.0491 67.96C72.0491 65.7012 70.218 63.87 67.9591 63.87C65.7003 63.87 63.8691 65.7012 63.8691 67.96C63.8691 70.2188 65.7003 72.05 67.9591 72.05Z" stroke="white" stroke-miterlimit="10" stroke-linecap="round" stroke-linejoin="round"/>
<path d="M67.9591 11.99C70.218 11.99 72.0491 10.1588 72.0491 7.9C72.0491 5.64115 70.218 3.81 67.9591 3.81C65.7003 3.81 63.8691 5.64115 63.8691 7.9C63.8691 10.1588 65.7003 11.99 67.9591 11.99Z" stroke="white" stroke-miterlimit="10" stroke-linecap="round" stroke-linejoin="round"/>
<path d="M37.9305 61.88C51.1577 61.88 61.8805 51.1572 61.8805 37.93C61.8805 24.7028 51.1577 13.98 37.9305 13.98C24.7032 13.98 13.9805 24.7028 13.9805 37.93C13.9805 51.1572 24.7032 61.88 37.9305 61.88Z" stroke="white" stroke-miterlimit="10" stroke-linecap="round" stroke-linejoin="round"/>
<path d="M37.9302 54.87C47.2859 54.87 54.8702 47.2857 54.8702 37.93C54.8702 28.5743 47.2859 20.99 37.9302 20.99C28.5745 20.99 20.9902 28.5743 20.9902 37.93C20.9902 47.2857 28.5745 54.87 37.9302 54.87Z" stroke="#003CFF" stroke-miterlimit="10" stroke-linecap="round" stroke-linejoin="round"/>
</g>
<defs>
<clipPath id="clip0">
<rect width="75.86" height="75.86" fill="white"/>
</clipPath>
</defs>
</svg>

<svg width="76" height="76" fill="none" xmlns="http://www.w3.org/2000/svg"><g clip-path="url(#clip0)"><path d="M69.6 75.86H6.26C2.8 75.86 0 73.06 0 69.6V6.26C0 2.8 2.8 0 6.26 0H69.6c3.46 0 6.26 2.8 6.26 6.26V69.6c0 3.46-2.8 6.26-6.26 6.26z" fill="#0019A5"/><path d="M7.9 11.99a4.09 4.09 0 100-8.18 4.09 4.09 0 000 8.18zm0 60.06a4.09 4.09 0 100-8.18 4.09 4.09 0 000 8.18zm60.06 0a4.09 4.09 0 100-8.18 4.09 4.09 0 000 8.18zm0-60.06a4.09 4.09 0 100-8.18 4.09 4.09 0 000 8.18zM37.93 61.88c13.228 0 23.95-10.723 23.95-23.95 0-13.227-10.722-23.95-23.95-23.95-13.227 0-23.95 10.723-23.95 23.95 0 13.227 10.723 23.95 23.95 23.95z" stroke="#fff" stroke-miterlimit="10" stroke-linecap="round" stroke-linejoin="round"/><path d="M37.93 54.87c9.356 0 16.94-7.584 16.94-16.94 0-9.356-7.584-16.94-16.94-16.94-9.355 0-16.94 7.584-16.94 16.94 0 9.356 7.585 16.94 16.94 16.94z" stroke="#003CFF" stroke-miterlimit="10" stroke-linecap="round" stroke-linejoin="round"/></g><defs><clipPath id="clip0"><path fill="#fff" d="M0 0h75.86v75.86H0z"/></clipPath></defs></svg>
